X:3488
T:Cottage Waltz,The. CJF.109
M:3/8
L:1/8
Q:30
S: C.J.Fox MS, 1829/33, Beverley,E.Yorks.
R:Waltz
O:England
A:East Yorkshire
B:Kidson Coll.Mitchell Lib.M1805
Z:P J Headford 2000
K:C
G|ccG|e2c|AcA|G2d/e/|ffd|eec|dBG|c2:|:!G|G(ec)|G(fd)|G(ge)|
d2G|cc/d/e/c/|AA/B/c/A/|GAB|c2||


